svg/goal.svg

<?xml version="1.0" encoding="UTF-8"?>
<svg xmlns="http://www.w3.org/2000/svg" xmlns:xlink="http://www.w3.org/1999/xlink" width="32" height="32" viewBox="0 0 32 32">
<path fill-rule="nonzero" fill="rgb(0%, 0%, 0%)" fill-opacity="1" d="M 16 1.28125 C 7.882812 1.28125 1.28125 7.882812 1.28125 16 C 1.28125 24.117188 7.882812 30.71875 16 30.71875 C 24.117188 30.71875 30.71875 24.117188 30.71875 16 C 30.722656 13.164062 29.898438 10.390625 28.355469 8.015625 L 27.410156 8.960938 L 25.753906 8.960938 L 24.007812 10.707031 C 25.046875 12.277344 25.601562 14.117188 25.601562 16 C 25.601562 21.300781 21.300781 25.601562 16 25.601562 C 10.699219 25.601562 6.398438 21.300781 6.398438 16 C 6.398438 10.699219 10.699219 6.398438 16 6.398438 C 17.957031 6.398438 19.773438 6.988281 21.292969 7.992188 L 23.039062 6.246094 L 23.039062 4.589844 L 23.984375 3.644531 C 21.609375 2.101562 18.835938 1.277344 16 1.28125 M 27.519531 1.921875 L 24.320312 5.121094 L 24.320312 6.773438 L 15.546875 15.546875 C 15.378906 15.707031 15.3125 15.945312 15.371094 16.167969 C 15.429688 16.394531 15.601562 16.570312 15.828125 16.628906 C 16.054688 16.6875 16.292969 16.621094 16.453125 16.453125 L 25.226562 7.679688 L 26.878906 7.679688 L 30.078125 4.480469 L 27.519531 4.480469 Z M 16 10.238281 C 12.820312 10.242188 10.242188 12.820312 10.238281 16 C 10.242188 19.179688 12.820312 21.757812 16 21.761719 C 19.179688 21.757812 21.757812 19.179688 21.761719 16 C 21.761719 15.113281 21.550781 14.273438 21.191406 13.523438 L 17.359375 17.359375 C 16.609375 18.109375 15.390625 18.109375 14.640625 17.359375 C 14.28125 16.996094 14.078125 16.507812 14.078125 16 C 14.078125 15.488281 14.28125 15.003906 14.640625 14.640625 L 18.476562 10.808594 C 17.707031 10.433594 16.859375 10.238281 16 10.238281 M 16 10.238281 "/>
</svg>

<svg role="img" viewBox="0 0 32 32" height="32" width="32" xmlns="http://www.w3.org/2000/svg"><path d="M16 1.281C7.883 1.281 1.281 7.883 1.281 16c0 8.117 6.602 14.719 14.719 14.719 8.117 0 14.719-6.602 14.719-14.719a14.63 14.63 0 0 0-2.364-7.984l-.945.945h-1.656l-1.746 1.746A9.568 9.568 0 0 1 25.602 16c0 5.3-4.301 9.602-9.602 9.602-5.3 0-9.602-4.301-9.602-9.602 0-5.3 4.301-9.602 9.602-9.602 1.957 0 3.773.59 5.293 1.594l1.746-1.746V4.59l.945-.945A14.63 14.63 0 0 0 16 1.28m11.52.64-3.2 3.2v1.652l-8.773 8.774a.64.64 0 0 0 .281 1.082.64.64 0 0 0 .625-.176l8.774-8.773h1.652l3.2-3.2h-2.56ZM16 10.239A5.77 5.77 0 0 0 10.238 16 5.77 5.77 0 0 0 16 21.762 5.77 5.77 0 0 0 21.762 16c0-.887-.211-1.727-.57-2.477l-3.833 3.836a1.924 1.924 0 0 1-2.719 0A1.928 1.928 0 0 1 14.079 16c0-.512.203-.996.563-1.36l3.836-3.831a5.667 5.667 0 0 0-2.477-.57m0 0"/></svg>
